src/icons/svg/VisColumn.svg

<svg width="24" height="24" viewBox="0 0 24 24" fill="none" xmlns="http://www.w3.org/2000/svg">
<path d="M2.80902 9.702H7.40502V21.191H2.80902V9.702V9.702Z" fill="#1C2125"/>
<path d="M9.70203 12H14.298V21.191H9.70203V12V12Z" fill="#1C2125"/>
<path d="M16.596 2.80901H21.192V21.192H16.596V2.80901V2.80901Z" fill="#1C2125"/>
<path d="M23.872 23.872H0.127014V0.126999H23.872V23.872ZM0.894014 23.106H23.107V0.892999H0.894014V23.106V23.106Z" fill="#1C2125"/>
</svg>

<!-- Generated by IcoMoon.io -->
<svg version="1.1" xmlns="http://www.w3.org/2000/svg" width="24" height="24" viewBox="0 0 24 24">
<title>vis-column</title>
<path fill="#444" d="M2.809 9.702h4.596v11.489h-4.596v-11.489z"></path>
<path fill="#444" d="M9.702 12h4.596v9.191h-4.596v-9.191z"></path>
<path fill="#444" d="M16.596 2.809h4.596v18.383h-4.596v-18.383z"></path>
<path fill="#444" d="M23.872 23.872h-23.745v-23.745h23.745v23.745zM0.894 23.106h22.213v-22.213h-22.213v22.213z"></path>
</svg>
